X: 2950
T: Barronstown Races, The
R: jig
M: 6/8
K: Gmajor
|:GF|D2 G GFG|BGc BAF|D2 E FEF|A2 d cAF|
D2 G GE/F/G|B2 G AB/c/d|fed cAF|AGF G-:|
|:A/B/c|d2 g gfg|abg f2 d|cBc fef|a2 g fg/f/e|
d2 g gdc|BGG AB/c/d|fdd c2 F|1 AGG G:|
|:FE|D2 G BAG|dBd cAG|FGA cAG|FA/B/c BAF|
GFG BAB|cBc dbg|ff/e/d cFG|AGF G:|
|:B/c/d|gdg gbg|fdf faf|ec/d/e ege|dBG G2 c|
BG/A/B cBc|d^cd eag|f2 d cFF|DGG G-:|

